X:1
T:THE BOSTON RAG
T:THE BOSTON RAG
T:Music by 
T:RAG-TIME
T:J. AERTS
T:L. A. 162
T:L. A. 162
T:L. A. 162
T:L. A. 162
C:Music by
Z:RAG-TIME
Z:L. A. 162
%%score { ( 1 2 ) | ( 3 4 ) }
L:1/8
Q:1/4=180
M:2/2
K:A
V:1 treble nm="Piano" snm="Pno."
V:2 treble 
V:3 bass 
V:4 bass 
V:1
"^Allá» Moderato"!f! [cc']4 [=c=c']4 | [Bb]4 [Ff]4 | z2 [dg]>^^f [dg]>^f [dg]>e | [Aa]4 [Aa]4 | %4
 [dfb]>^a [dfb]4 [fbf']2 | [ec'e']2 [ea]2 [eac']4 | [dgb] [dg^a]2 [dgb] [dge']2 [dgc']2 | %7
 [cea]2 z2 !^![Acea]2 z2 |:"^TILL READY"!f!!p! z A,CG F2 [G,DE]2 | %9
 z [G,DF][G,DE][G,DF]- [G,DF][G,DE][G,DF][G,DE] :|!p! [Ec] e2 c B c3 | A2 F2 E4 | %12
 [A,F] [CA]2 [A,F] [CA][A,F][CA][A,F]- | [A,F] [B,G]2 [DB] [Ge]2 z2 | [Fd] [DF]2 [D^^F] [DG]2 d2 | %15
 [Ec] [CE]2 [C^E] [CF]E[Ec][CE] |!<(! B>c^d>c B>FG>A!<)! | BEF^^F [DG]2 !^![DGe]2 | %18
!p! [Ec] e2 c B c3 | A2 F2 E4 | [A,F] [CA]2 [A,F] [CA][A,F][CA][A,F]- | [A,F] [B,G]2 [DB] [Ge]4 | %22
 [Ae] [A^d]2 [Ac] [A^B][Ac][Ad][Ac] | [EBe]2 [EB]2 z2 GA | [^DB] [DF]2 [DG] AFGA | [=DB]4 [D^B]4 |: %26
 c4 =c4 | B4 F4 | z2 [=DG]>^^F [DG]>^F [DG]>E | A4 A4 | z2 A2 F2 A2 | D4 D4 | %32
 z2 [DE]>F [DG]>F [DG]>E | A4 A4 | [AB]>[Ac] [A^d]2- [Ad]>cB>A | G2 [Gc]2 [GB]4 | %36
 [AB]>[Ac] [A^d]2- [Ad]>[Ac][AB]>A | G2 [Gc]2 [GB]4 | ccc^B ^d2 !>!c2 | =BBB^A c2 B2 | %40
 [EAc]2 !>![Ece]4 [EAc]2 | [EB]2 !>![EBe]4 [EG]2 | [^DB]2 [CA]2 [B,G]2 [A,F]2 | %43
 [G,E]2!>(! !>![EGe]2 !>![EA^d]2 !>![EB=d]2!>)! | c4 =c4 | B4 F4 | z2 [=DG]>^^F [DG]>^F [DG]>E | %47
 A4 A4 | [DFB]>^A [DFB]4 [FBf]2 | [Ece]2 [EA]2 [EAc]2 z2 | [DGB] [DG^A]2 [EGB] [DGe]2 [DGc]2 | %51
 [CEA]2 z2 !^![Acea]2 z2 ::[K:D]!f!"^TRIO" z2 !>![Ada]2- [Ada]fed | c !>!d2 !>!^d2 (ecA) | %54
 z2 !>![Ada]2- [Ada]fed | c !>!d2 !>!^d2 (ecA) |!p! d>^c d2- dcdc | B>^A !>!B2- BAB=A | %58
 [^Ge]>^d !>![Ge]2- [Ge]^de=d |!<(! [=Gc] !>![Gd]2 !>![G^d]2 !>![Ge]2 !^![Gca]!<)! | %60
!f! z2 !>![Ada]2- [Ada]fed | c !>!d2 !>!^d2 (ecA) | z2 !>![Ada]2- [Ada]fed | c !>!d2 !>!^d2 (ecA) | %64
!p! d>^c !>!d2- dcdc | e>^d !>!e2- ede^e | f !>![Aa]2!<(! [^A^a]2 [Bb]2 [cgc']!<)! | %67
 [dfd'] [d^e^gb]2 [deg] !^![dfd']2 z2 ::[K:A]!f!!p! z A,CG F2 [G,DE]2 | %69
 z [G,DF][G,DE][G,DF]- [G,DF][G,DE][G,DF][G,DE] :|!p! [Ec] e2 c B c3 | A2 F2 E4 | %72
 [A,F] [CA]2 [A,F] [CA][A,F][CA][A,F]- | [A,F] [B,G]2 [DB] [Ge]2 z2 | [Fd] [DF]2 [D^^F] [DG]2 d2 | %75
 [Ec] [CE]2 [C^E] [CF]E[Ec][CE] |!<(! B>c^d>c B>FG>A!<)! |!<(! BEF^^F!<)! [DG]2 !^![DGe]2 | %78
!p! [Ec] e2 c B c3 | A2 F2 E4 | [A,F] [CA]2 [A,F] [CA][A,F][CA][A,F]- | [A,F] [B,G]2 [DB] [Ge]4 | %82
 [Ae] [A^d]2 [Ac] [A^B][Ac][Ad][Ac] | [EBe]2 [EB]2 z2 GA | [^DB] [DF]2 [DG] AFGA | [=DB]4 [D^B]4 |: %86
!p!!f! c4 =c4 | B4 F4 | z2 [=DG]>^^F [DG]>^F [DG]>E | A4 A4 | z2 A2 F2 A2 | D4 D4 | %92
 z2 [DE]>F [DG]>F [DG]>E | A4 A4 | [AB]>[Ac] [A^d]2- [Ad]>cB>A | G2 [Gc]2 [GB]4 | %96
 [AB]>[Ac] [A^d]2- [Ad]>[Ac][AB]>A | G2 [Gc]2 [GB]4 | ccc^B ^d2 !>!c2 | =BBB^A c2 !>!B2 | %100
 [EAc]2 !>![Ece]4 [EAc]2 | [EB]2 !>![EBe]4 [EG]2 | [^DB]2 [CA]2 [B,G]2 [A,F]2 | %103
 [G,E]2!>(! !>![EGe]2 !>![EA^d]2 !>![EB=d]2!>)! | c4 =c4 | B4 F4 | z2 [=DG]>^^F [DG]>^F [DG]>E | %107
 A4 A4 | [DFB]>^A [DFB]4 [FBf]2 | [Ece]2 [EA]2 [EAc]2 z2 | [DGB] !>![DG^A]2 [EGB] [DGe]2 [DGc]2 | %111
 [CEA]2 z2 !^![Acea]2 z2 |] %112
V:2
 z2 [ce][ce] z2 [=ce][ce] | z2 [B^d][Bd] z2 [Bd][Bd] | x8 | z2 [ce][ce] z2 [ce][ce] | x8 | x8 | %6
 x8 | x8 |: x8 | x8 :| x8 | z [A,C] z [A,C] z [A,C]2 [A,C] | x8 | x8 | x4 z [DE] z [DE] | x8 | x8 | %17
 x8 | x8 | z [A,C] z [A,C] z [A,C]2 [A,C] | x8 | x8 | x8 | x8 | x4 ^D4 | %25
 z [EG]2 [EG] z [EG]2 [EG] |: z2 [CE][CE] z2 [=CE][CE] | z2 [B,^D][B,D] z2 [B,D][B,D] | x8 | %29
 z2 [CE][CE] z2 [CE][CE] | x8 | x8 | x8 | z2 [CE][CE] z2 [CE][CE] | x8 | x8 | x8 | x8 | E6 !>!E2 | %39
 E6 !>!E2 | x8 | x8 | x8 | x8 | z2 [CE][CE] z2 [=CE][CE] | z2 [B,^D][B,D] z2 [B,D][B,D] | x8 | %47
 z2 [CE][CE] z2 [CE][CE] | x8 | x8 | x8 | x8 ::[K:D] x8 | x8 | x8 | x8 | x8 | x8 | x8 | x8 | x8 | %61
 x8 | x8 | x8 | x8 | x8 | x8 | x8 ::[K:A] x8 | x8 :| x8 | z [A,C] z [A,C] z [A,C]2 [A,C] | x8 | %73
 x8 | x4 z [DE] z [DE] | x8 | x8 | x8 | x8 | z [A,C] z [A,C] z [A,C]2 [A,C] | x8 | x8 | x8 | x8 | %84
 x4 ^D4 | z [EG]2 [EG] z [EG]2 [EG] |: z2 [CE][CE] z2 [=CE][CE] | z2 [B,^D][B,D] z2 [B,D][B,D] | %88
 x8 | z2 [CE][CE] z2 [CE][CE] | x8 | x8 | x8 | z2 [CE][CE] z2 [CE][CE] | x8 | x8 | x8 | x8 | %98
 E6 E2 | E6 E2 | x8 | x8 | x8 | x8 | z2 [CE][CE] z2 [=CE][CE] | z2 [B,^D][B,D] z2 [B,D][B,D] | x8 | %107
 z2 [CE][CE] z2 [CE][CE] | x8 | x8 | x8 | x8 |] %112
V:3
 A,,2 [E,A,][E,A,] A,,2 [E,A,][E,A,] | B,,2 [F,A,][F,A,] B,,2 [F,A,][F,A,] | %2
 E,,2 [E,G,B,]2 E,,2 [E,G,B,]2 | A,,2 [E,A,][E,A,] A,,2 [E,A,][E,A,] | %4
 [D,,D,]2 [F,B,]2 [D,,D,]2 [F,B,]2 | [E,,E,]2 [A,C]2 [E,,E,]2 [A,C]2 | E,,2 E,2 E,,2 E,2 | %7
 [A,,A,]2 z2 !^![A,,,E,,A,,]2 z2 |: A,,2 E,2 B,,2 E,2 | E,,2 E,2 B,,2 E,2 :| A,,2 E,2 E,,2 E,2 | %11
 z2 F,2 E,4 | A,,2 E,2 C,2 E,2 | B,,2 E,2 E,,2 E,2 | B,,2 [G,B,]2 E,2 [G,B,]2 | A,,2 E,2 E,,2 E,2 | %16
 ^D,2 [A,B,]2 F,2 [A,B,]2 | E,2 E,,2 E,2 E,,2 | A,,2 E,2 E,,2 E,2 | z2 F,2 E,4 | %20
"_Copyright by LOUIS AERTS 1917""_LOUIS AERTS, Editeur, 67, rue de CLICHY, Paris" A,,2 E,2 C,2 E,2 | %21
 B,,2 E,2 G,2 B,2 | [F,,F,]2 [A,CE]4 [A,CE]2 | [G,,G,]2 [G,B,]2 B,,2 [G,B,]2 | %24
 F,2 [A,B,]2 B,,2 [A,B,]2 | E, [G,B,]2 [G,B,] E, [G,^B,]2 [G,B,] |: %26
 A,,2 [E,A,][E,A,] A,,2 [E,A,][E,A,] | B,,2 [F,A,][F,A,] B,,2 [F,A,][F,A,] | %28
 E,,2 [E,G,B,]2 E,,2 [E,G,B,]2 | A,,2 [E,A,][E,A,] A,,2 [E,A,][E,A,] | A,,2 [E,A,]2 C,2 [E,A,]2 | %31
 A,,2 [G,B,][G,B,] E,,2 [G,B,][G,B,] | B,,2 [G,B,]2 E,,2 [G,B,]2 | %33
 A,,2 [E,A,][E,A,] A,,2 [E,A,][E,A,] | F,2 [A,B,]2 B,,2 [A,B,]2 | E,2 [G,B,]2 B,,2 [G,B,]2 | %36
 F,2 [A,B,]2 B,,2 [A,B,]2 | E,2 [G,B,]2 B,,2 [G,B,]2 | ^A,6 A,2 | G,6 G,2 | %40
 [F,,F,]2 [F,A,C]4 [F,A,C]2 | [G,,G,]2 [G,B,]4 [G,B,]2 | B,,,2 B,,2 B,,,2 B,,2 | %43
 [E,,E,]2 !>![E,,E,]2 !>![F,,F,]2 !>![G,,G,]2 | A,,2 [E,A,][E,A,] A,,2 [E,A,][E,A,] | %45
 B,,2 [F,A,][F,A,] B,,2 [F,A,][F,A,] | E,,2 [E,G,B,]2 E,,2 [E,G,B,]2 | %47
 A,,2 [E,A,][E,A,] A,,2 [E,A,][E,A,] | D,2 [F,B,]2 D,2 [F,B,]2 | E,2 [A,C]2 E,2 [A,C]2 | %50
 E,,2 E,2 E,,2 E,2 | [A,,A,]2 z2 !^![A,,,E,,A,,]2 z2 :: %52
[K:D] !^![D,,D,]2 [F,A,D]2 [F,,F,]2 [F,A,D]2 | [E,,E,]2 [G,A,C]2 [A,,,A,,]2 [G,A,C]2 | %54
 !^![D,,D,]2 [F,A,D]2 [F,,F,]2 [F,A,D]2 | [E,,E,]2 [G,A,C]2 [A,,,A,,]2 [G,A,C]2 | %56
 F,2 [A,D]2 F,2 [A,D]2 | G,2 [B,D]2 F,2 [A,B,^D]2 |"^cresc." E,2 [B,E]2 ^G,2 [B,E]2 | %59
 A,2 A,,2 A,2 A,,2 | !^![D,,D,]2 [F,A,D]2 [F,,F,]2 [F,A,D]2 | %61
 [E,,E,]2 [G,A,C]2 [A,,,A,,]2 [G,A,C]2 | !^![D,,D,]2 [F,A,D]2 [F,,F,]2 [F,A,D]2 | %63
 [E,,E,]2 [G,A,C]2 [A,,,A,,]2 [G,A,C]2 | F,2 [A,D]2 F,2 [A,D]2 |"^cresc." E,2 [B,D]2 ^G,2 [B,D]2 | %66
 A,2 [DF]2 A,,2 [E,G,A,]2 | [D,,D,] [D,^E,^G,]2 [D,E,G,] [D,,A,,D,]2 z2 ::[K:A] A,,2 E,2 B,,2 E,2 | %69
 E,,2 E,2 B,,2 E,2 :| A,,2 E,2 E,,2 E,2 | z2 F,2 E,4 | A,,2 E,2 C,2 E,2 | B,,2 E,2 E,,2 E,2 | %74
 B,,2 [G,B,]2 E,2 [G,B,]2 | A,,2 E,2 E,,2 E,2 | ^D,2 [A,B,]2 F,2 [A,B,]2 | E,2 E,,2 E,2 E,,2 | %78
 A,,2 E,2 E,,2 E,2 | z2 F,2 E,4 | A,,2 E,2 C,2 E,2 | B,,2 E,2 G,2 B,2 | [F,,F,]2 [A,CE]4 [A,CE]2 | %83
 [G,,G,]2 [G,B,]2 B,,2 [G,B,]2 | F,2 [A,B,]2 B,,2 [A,B,]2 | E, [G,B,]2 [G,B,] E, [G,^B,]2 [G,B,] |: %86
 A,,2 [E,A,][E,A,] A,,2 [E,A,][E,A,] | B,,2 [F,A,][F,A,] B,,2 [F,A,][F,A,] | %88
 E,,2 [E,G,B,]2 E,,2 [E,G,B,]2 | A,,2 [E,A,][E,A,] A,,2 [E,A,][E,A,] | A,,2 [E,A,]2 C,2 [E,A,]2 | %91
 A,,2 [G,B,][G,B,] E,,2 [G,B,][G,B,] | B,,2 [G,B,]2 E,,2 [G,B,]2 | %93
 A,,2 [E,A,][E,A,] A,,2 [E,A,][E,A,] | F,2 [A,B,]2 B,,2 [A,B,]2 | E,2 [G,B,]2 B,,2 [G,B,]2 | %96
 F,2 [A,B,]2 B,,2 [A,B,]2 | E,2 [G,B,]2 B,,2 [G,B,]2 | ^A,6 !>!A,2 | G,6 !>!G,2 | %100
 [F,,F,]2 [F,A,C]4 [F,A,C]2 | [G,,G,]2 [G,B,]4 [G,B,]2 | B,,,2 B,,2 B,,,2 B,,2 | %103
 [E,,E,]2 !>![E,,E,]2 !>![F,,F,]2 !>![G,,G,]2 | A,,2 [E,A,][E,A,] A,,2 [E,A,][E,A,] | %105
 B,,2 [F,A,][F,A,] B,,2 [F,A,][F,A,] | E,,2 [E,G,B,]2 E,,2 [E,G,B,]2 | %107
 A,,2 [E,A,][E,A,] A,,2 [E,A,][E,A,] | D,2 [F,B,]2 D,2 [F,B,]2 | E,2 [A,C]2 E,2 [A,C]2 | %110
 E,,2 E,2 E,,2 E,2 | [A,,A,]2 z2 !^![A,,,E,,A,,]2 z2 |] %112
V:4
 x8 | x8 | x8 | x8 | x8 | x8 | x8 | x8 |: x8 | x8 :| x8 | A,,8 | x8 | x8 | x8 | x8 | x8 | x8 | x8 | %19
 A,,8 | x8 | x8 | x8 | x8 | x8 | x8 |: x8 | x8 | x8 | x8 | x8 | x8 | x8 | x8 | x8 | x8 | x8 | x8 | %38
 x8 | x8 | x8 | x8 | x8 | x8 | x8 | x8 | x8 | x8 | x8 | x8 | x8 | x8 ::[K:D] x8 | x8 | x8 | x8 | %56
 x8 | x8 | x8 | x8 | x8 | x8 | x8 | x8 | x8 | x8 | x8 | x8 ::[K:A] x8 | x8 :| x8 | A,,8 | x8 | x8 | %74
 x8 | x8 | x8 | x8 | x8 | A,,8 | x8 | x8 | x8 | x8 | x8 | x8 |: x8 | x8 | x8 | x8 | x8 | x8 | x8 | %93
 x8 | x8 | x8 | x8 | x8 | x8 | x8 | x8 | x8 | x8 | x8 | x8 | x8 | x8 | x8 | x8 | x8 | x8 | x8 |] %112

